ExtensionSource/app/images/security-icon.svg

<svg width="12" height="15" viewBox="0 0 12 15" fill="none" xmlns="http://www.w3.org/2000/svg">
<path d="M3.43108 7.28571H8.57394V5.35714C8.57394 4.64732 8.32282 4.04129 7.82059 3.53906C7.31836 3.03683 6.71233 2.78571 6.00251 2.78571C5.29269 2.78571 4.68666 3.03683 4.18443 3.53906C3.6822 4.04129 3.43108 4.64732 3.43108 5.35714V7.28571ZM11.7882 8.25V14.0357C11.7882 14.3036 11.6945 14.5312 11.507 14.7188C11.3195 14.9062 11.0918 15 10.8239 15H1.18108C0.913225 15 0.685547 14.9062 0.498047 14.7188C0.310547 14.5312 0.216797 14.3036 0.216797 14.0357V8.25C0.216797 7.98214 0.310547 7.75446 0.498047 7.56696C0.685547 7.37946 0.913225 7.28571 1.18108 7.28571H1.50251V5.35714C1.50251 4.125 1.94448 3.06696 2.8284 2.18304C3.71233 1.29911 4.77037 0.857142 6.00251 0.857142C7.23465 0.857142 8.29269 1.29911 9.17662 2.18304C10.0605 3.06696 10.5025 4.125 10.5025 5.35714V7.28571H10.8239C11.0918 7.28571 11.3195 7.37946 11.507 7.56696C11.6945 7.75446 11.7882 7.98214 11.7882 8.25Z" fill="#24292E"/>
</svg>

<svg id="esO9UEcMfjK1" xmlns="http://www.w3.org/2000/svg" xmlns:xlink="http://www.w3.org/1999/xlink" viewBox="0 0 12 15" shape-rendering="geometricPrecision" text-rendering="geometricPrecision"><path d="M3.43108,7.28571h5.14286v-1.92857c0-.70982-.25112-1.31585-.75335-1.81808s-1.10826-.75335-1.81808-.75335-1.31585.25112-1.81808.75335-.75335,1.10826-.75335,1.81808v1.92857ZM11.7882,8.25v5.7857c0,.2679-.0937.4955-.2812.6831-.1875.1874-.4152.2812-.6831.2812h-9.64282c-.267855,0-.495533-.0938-.683033-.2812-.1875-.1876-.28125-.4152-.28125-.6831v-5.7857c0-.26786.09375-.49554.28125-.68304s.415178-.28125.683033-.28125h.32143v-1.92857c0-1.23214.44197-2.29018,1.32589-3.1741s1.94197-1.325898,3.17411-1.325898s2.29018.441968,3.17411,1.325898s1.32588,1.94196,1.32588,3.1741v1.92857h.3214c.2679,0,.4956.09375.6831.28125s.2812.41518.2812.68304Z" fill="#fff"/></svg>
